X: 20
T: SOLDIER'S JOY
S: Melvyn Leask, Anderson High
R: reel
B: Haand me doon da fiddle, 1979
Z: 2012 John Chambers <jc:trillian.mit.edu>
N: Bars 1, 3 and 4 have dots above some notes that may indicate an open-A "drone" note.
M: none
L: 1/8
K: D
vd(uB |:\
AG)vF(uE DE)vF(uG | A2)vd(ud d2)vd(uB | AG)vF(uE DE)vF(uD | G2)vE(uE E2)vd(uB |
AG)vF(uE DE)vFuG | vA2d2 [D3G,2] (ue | fd)fa gfe(uc |[1 A2) vd(ud d2) dB :|[2 A2vd(ud d3)(vA |]
|: d)efg a2f2 | ve(udef) g2(fe) | defg a2f2 | ve(udcB) (v[A2D2][AD])[AD] |
defg a2f2 | edef g2-g(ue | fa)vf(ud ef)veuc | vA2[f2d2] [f3d3]A :|
%%begintext align
Dis is a very auld t\"un which is fun all ower da world.  Dere are
mony different wyes o' im even in Shetland.  Dis is da wye me
grandfaider played him.  Although he's no a Shetland t\"un, he wis
wan o' da favorite eens fir dancin til, an dey fairly licket at da
Shetland Reel whan da fiddler played him.

We're tryed to shaw dee da bow stokes o' da aff-beat 1 doon an 3
up, at da auld fiddlers \"osed so dat du can git da right wye o' im.
Da 1-2-3 at da end o' each turnin is whaur da dancers strampit oot
da steps o' da Shetland Reel.  Da fiddler sometimes wid play dem
wi da aff-beat bowin so it made a lightsome change.  Some o' you
can draw bass while da idder eens plays him, as dey \"osed ta dae
in Bressay.
%%endtext

%%sep 2 1 500
%%sep 1 1 500

